img/hero-bg-3.svg

<svg width="1024" height="510" fill="none" xmlns="http://www.w3.org/2000/svg"><g opacity=".2" clip-path="url(#clip0_431_1672)" stroke="#F1F6FF" stroke-linecap="round" stroke-linejoin="round"><path d="M924.12 52.493H50.244v11.639H924.12v-11.64zM341 422H50v11h291v-11zM635.547 64.238h-11.39v369.234h11.39V64.238zm288.554 0h-11.39v369.234h11.39V64.238z" stroke-width="1.898" stroke-miterlimit="10"/><path d="M62.238 64.238h-12.34v369.234h12.34V64.238zm289.84 0h-11.39v369.234h11.39V64.238zM924 422H636v11h288v-11z" stroke-width="1.898" stroke-miterlimit="10"/><path d="M341 433l283 1" stroke-width="1.25" stroke-dasharray="1.66 2.49"/><path d="M624 324.925H492.231v11.659H624v-11.659zm0 29.855H492.231v11.659H624V354.78zm0-59.71H492.231v11.659H624V295.07zm0 89.565H492.231v11.659H624v-11.659zm-142.368-59.71H352v11.659h129.632v-11.659zm0 29.855H352v11.659h129.632V354.78zm0-59.71H352v11.659h129.632V295.07zM624 265H492v12h132v-12zm-142 0H352v12h130v-12zm142-30H492v12h132v-12zm-142 0H352v12h130v-12zm142-32H492v12h132v-12zm-142 0H352v12h130v-12zm142-34H492v12h132v-12zm-143 0H352v12h129v-12zm143-34H492v12h132v-12zm-143 0H352v12h129v-12zm155-33H492v12h144v-12zm-155 0H341v12h140v-12zm.632 282.635H352v11.659h129.632v-11.659z" stroke-width="1.042" stroke-miterlimit="10"/><path d="M492.428 102h-11v310h11V102z" stroke-width="1.042" stroke-miterlimit="10"/></g><g opacity=".2" stroke="#F1F6FF" stroke-miterlimit="10" stroke-linecap="round" stroke-linejoin="round"><path d="M787.297 189.162l-7.045 7.046m-9.247-2.766l7.045-7.044m-7.716 13.721l17.635-17.634" stroke-width="1.424"/><path d="M817.507 109.795h-76.712V272.81h76.712V109.795z" stroke-width="2.136"/><path d="M822.302 105H736v172.603h86.302V105z" stroke-width="2.136"/></g><g opacity=".2" stroke="#F1F6FF" stroke-miterlimit="10" stroke-linecap="round" stroke-linejoin="round"><path d="M188.297 189.162l-7.045 7.046m-9.247-2.766l7.045-7.044m-7.716 13.721l17.635-17.634" stroke-width="1.424"/><path d="M218.507 109.795h-76.712V272.81h76.712V109.795z" stroke-width="2.136"/><path d="M223.302 105H137v172.603h86.302V105z" stroke-width="2.136"/></g><defs><clipPath id="clip0_431_1672"><path fill="#fff" transform="translate(48 50)" d="M0 0h878v385.371H0z"/></clipPath></defs></svg>

<svg width="1024" height="510" viewBox="0 0 1024 510" fill="none" xmlns="http://www.w3.org/2000/svg">
<g opacity="0.2" clip-path="url(#clip0_431_1672)">
<path d="M924.12 52.4928H50.2441V64.1315H924.12V52.4928Z" stroke="#F1F6FF" stroke-width="1.89838" stroke-miterlimit="10" stroke-linecap="round" stroke-linejoin="round"/>
<path d="M341 422H50V433H341V422Z" stroke="#F1F6FF" stroke-width="1.89838" stroke-miterlimit="10" stroke-linecap="round" stroke-linejoin="round"/>
<path d="M635.547 64.2378H624.157V433.472H635.547V64.2378Z" stroke="#F1F6FF" stroke-width="1.89838" stroke-miterlimit="10" stroke-linecap="round" stroke-linejoin="round"/>
<path d="M924.101 64.2378H912.711V433.472H924.101V64.2378Z" stroke="#F1F6FF" stroke-width="1.89838" stroke-miterlimit="10" stroke-linecap="round" stroke-linejoin="round"/>
<path d="M62.2379 64.2378H49.8984V433.472H62.2379V64.2378Z" stroke="#F1F6FF" stroke-width="1.89838" stroke-miterlimit="10" stroke-linecap="round" stroke-linejoin="round"/>
<path d="M352.078 64.2378H340.688V433.472H352.078V64.2378Z" stroke="#F1F6FF" stroke-width="1.89838" stroke-miterlimit="10" stroke-linecap="round" stroke-linejoin="round"/>
<path d="M924 422H636V433H924V422Z" stroke="#F1F6FF" stroke-width="1.89838" stroke-miterlimit="10" stroke-linecap="round" stroke-linejoin="round"/>
<path d="M341 433L624 434" stroke="#F1F6FF" stroke-width="1.25042" stroke-linecap="round" stroke-linejoin="round" stroke-dasharray="1.66 2.49"/>
<path d="M624 324.925H492.231V336.584H624V324.925Z" stroke="#F1F6FF" stroke-width="1.04202" stroke-miterlimit="10" stroke-linecap="round" stroke-linejoin="round"/>
<path d="M624 354.78H492.231V366.439H624V354.78Z" stroke="#F1F6FF" stroke-width="1.04202" stroke-miterlimit="10" stroke-linecap="round" stroke-linejoin="round"/>
<path d="M624 295.07H492.231V306.729H624V295.07Z" stroke="#F1F6FF" stroke-width="1.04202" stroke-miterlimit="10" stroke-linecap="round" stroke-linejoin="round"/>
<path d="M624 384.635H492.231V396.294H624V384.635Z" stroke="#F1F6FF" stroke-width="1.04202" stroke-miterlimit="10" stroke-linecap="round" stroke-linejoin="round"/>
<path d="M481.632 324.925H352V336.584H481.632V324.925Z" stroke="#F1F6FF" stroke-width="1.04202" stroke-miterlimit="10" stroke-linecap="round" stroke-linejoin="round"/>
<path d="M481.632 354.78H352V366.439H481.632V354.78Z" stroke="#F1F6FF" stroke-width="1.04202" stroke-miterlimit="10" stroke-linecap="round" stroke-linejoin="round"/>
<path d="M481.632 295.07H352V306.729H481.632V295.07Z" stroke="#F1F6FF" stroke-width="1.04202" stroke-miterlimit="10" stroke-linecap="round" stroke-linejoin="round"/>
<path d="M624 265H492V277H624V265Z" stroke="#F1F6FF" stroke-width="1.04202" stroke-miterlimit="10" stroke-linecap="round" stroke-linejoin="round"/>
<path d="M482 265H352V277H482V265Z" stroke="#F1F6FF" stroke-width="1.04202" stroke-miterlimit="10" stroke-linecap="round" stroke-linejoin="round"/>
<path d="M624 235H492V247H624V235Z" stroke="#F1F6FF" stroke-width="1.04202" stroke-miterlimit="10" stroke-linecap="round" stroke-linejoin="round"/>
<path d="M482 235H352V247H482V235Z" stroke="#F1F6FF" stroke-width="1.04202" stroke-miterlimit="10" stroke-linecap="round" stroke-linejoin="round"/>
<path d="M624 203H492V215H624V203Z" stroke="#F1F6FF" stroke-width="1.04202" stroke-miterlimit="10" stroke-linecap="round" stroke-linejoin="round"/>
<path d="M482 203H352V215H482V203Z" stroke="#F1F6FF" stroke-width="1.04202" stroke-miterlimit="10" stroke-linecap="round" stroke-linejoin="round"/>
<path d="M624 169H492V181H624V169Z" stroke="#F1F6FF" stroke-width="1.04202" stroke-miterlimit="10" stroke-linecap="round" stroke-linejoin="round"/>
<path d="M481 169H352V181H481V169Z" stroke="#F1F6FF" stroke-width="1.04202" stroke-miterlimit="10" stroke-linecap="round" stroke-linejoin="round"/>
<path d="M624 135H492V147H624V135Z" stroke="#F1F6FF" stroke-width="1.04202" stroke-miterlimit="10" stroke-linecap="round" stroke-linejoin="round"/>
<path d="M481 135H352V147H481V135Z" stroke="#F1F6FF" stroke-width="1.04202" stroke-miterlimit="10" stroke-linecap="round" stroke-linejoin="round"/>
<path d="M636 102H492V114H636V102Z" stroke="#F1F6FF" stroke-width="1.04202" stroke-miterlimit="10" stroke-linecap="round" stroke-linejoin="round"/>
<path d="M481 102H341V114H481V102Z" stroke="#F1F6FF" stroke-width="1.04202" stroke-miterlimit="10" stroke-linecap="round" stroke-linejoin="round"/>
<path d="M481.632 384.635H352V396.294H481.632V384.635Z" stroke="#F1F6FF" stroke-width="1.04202" stroke-miterlimit="10" stroke-linecap="round" stroke-linejoin="round"/>
<path d="M492.428 102H481.428V412H492.428V102Z" stroke="#F1F6FF" stroke-width="1.04202" stroke-miterlimit="10" stroke-linecap="round" stroke-linejoin="round"/>
</g>
<g opacity="0.2">
<path d="M787.297 189.162L780.252 196.208" stroke="#F1F6FF" stroke-width="1.42378" stroke-miterlimit="10" stroke-linecap="round" stroke-linejoin="round"/>
<path d="M771.005 193.442L778.05 186.398" stroke="#F1F6FF" stroke-width="1.42378" stroke-miterlimit="10" stroke-linecap="round" stroke-linejoin="round"/>
<path d="M770.334 200.119L787.969 182.485" stroke="#F1F6FF" stroke-width="1.42378" stroke-miterlimit="10" stroke-linecap="round" stroke-linejoin="round"/>
<path d="M817.507 109.795H740.795V272.81H817.507V109.795Z" stroke="#F1F6FF" stroke-width="2.13568" stroke-miterlimit="10" stroke-linecap="round" stroke-linejoin="round"/>
<path d="M822.302 105H736V277.603H822.302V105Z" stroke="#F1F6FF" stroke-width="2.13568" stroke-miterlimit="10" stroke-linecap="round" stroke-linejoin="round"/>
</g>
<g opacity="0.2">
<path d="M188.297 189.162L181.252 196.208" stroke="#F1F6FF" stroke-width="1.42378" stroke-miterlimit="10" stroke-linecap="round" stroke-linejoin="round"/>
<path d="M172.005 193.442L179.05 186.398" stroke="#F1F6FF" stroke-width="1.42378" stroke-miterlimit="10" stroke-linecap="round" stroke-linejoin="round"/>
<path d="M171.334 200.119L188.969 182.485" stroke="#F1F6FF" stroke-width="1.42378" stroke-miterlimit="10" stroke-linecap="round" stroke-linejoin="round"/>
<path d="M218.507 109.795H141.795V272.81H218.507V109.795Z" stroke="#F1F6FF" stroke-width="2.13568" stroke-miterlimit="10" stroke-linecap="round" stroke-linejoin="round"/>
<path d="M223.302 105H137V277.603H223.302V105Z" stroke="#F1F6FF" stroke-width="2.13568" stroke-miterlimit="10" stroke-linecap="round" stroke-linejoin="round"/>
</g>
<defs>
<clipPath id="clip0_431_1672">
<rect width="878" height="385.371" fill="white" transform="translate(48 50)"/>
</clipPath>
</defs>
</svg>
